@S0 = { kick.flac }
@S1 = { clap.flac }

A @S0
A t150
A o6c16r16c16r8.c16r16c16r16c16r4r16
A c16r16c16r8.c16r16c16r16c16r16c16r16c16r16

B @S1
B t150
B r4o6c16r4..c16r4..
B c16r2r8.

C t150
C o5e16f16g16f16g16a16g16a16b16r4..
C b16<d16e16r4r16e16f16g16a16g16f16g16r16
